svg/NEPAnode-FreeOpenSourceLicenses/licenses-cc-remix.svg

<svg enable-background="new 5.5 -3.5 64 64" viewBox="5.5 -3.5 64 64" xmlns="http://www.w3.org/2000/svg"><circle cx="37.834" cy="28" fill="#fff" r="28.834"/><path d="m37.443-3.5c8.951 0 16.531 3.105 22.742 9.315 6.208 6.172 9.315 13.733 9.315 22.685 0 8.954-3.049 16.457-9.145 22.514-6.437 6.324-14.08 9.486-22.912 9.486-8.649 0-16.15-3.143-22.514-9.429-6.285-6.285-9.429-13.807-9.429-22.57 0-8.723 3.144-16.285 9.429-22.685 6.209-6.211 13.714-9.316 22.514-9.316m.114 5.772c-7.276 0-13.428 2.572-18.457 7.715-5.22 5.296-7.829 11.467-7.829 18.513 0 7.125 2.59 13.257 7.77 18.4 5.181 5.182 11.352 7.771 18.514 7.771 7.123 0 13.334-2.609 18.629-7.828 5.03-4.876 7.543-10.99 7.543-18.343 0-7.313-2.553-13.485-7.656-18.513-5.067-5.145-11.239-7.715-18.514-7.715m20.857 26.8l.629.286v9.03l-.572.284-7.771 3.315-.343.115-.4-.114-16.743-6.914-.572-.229-8.285 3.429-8.171-3.544v-8.228l7.657-3.201-.057-.057v-9.03l8.686-3.828 19.6 8.114v7.943l6.342 2.63m-9.09 10.512v-5.655h-.057v-.229l-14.686-6v5.83l14.686 6.06v-.058l.057.054m.971-7.427l5.145-2.114-4.744-2-5.03 2.114 4.628 2m6.744 4.915v-5.542l-5.715 2.4v5.6l5.715-2.458"/></svg>

<?xml version="1.0" encoding="utf-8"?>
<!-- Generator: Adobe Illustrator 13.0.2, SVG Export Plug-In . SVG Version: 6.00 Build 14948)  --><svg enable-background="new 5.5 -3.5 64 64" height="64px" id="Layer_1" space="preserve" version="1.0" viewBox="5.5 -3.5 64 64" width="64px" x="0px" xmlns="http://www.w3.org/2000/svg" xmlns:xlink="http://www.w3.org/1999/xlink" y="0px">
  <metadata>
    <rdf:RDF xmlns:cc="http://web.resource.org/cc/" xmlns:dc="http://purl.org/dc/elements/1.1/" xmlns:rdf="http://www.w3.org/1999/02/22-rdf-syntax-ns#">
      <cc:Work rdf:about="">
        <dc:title></dc:title>
        <dc:description></dc:description>
        <dc:subject>
          <rdf:Bag>
            <rdf:li></rdf:li>
          </rdf:Bag>
        </dc:subject>
        <dc:publisher>
          <cc:Agent rdf:about="http://creativecommons.org/about/downloads">
            <dc:title>Source: Creative Commons, Source: Creative Commons, Source: Creative Commons</dc:title>
          </cc:Agent>
        </dc:publisher>
        <dc:creator>
          <cc:Agent>
            <dc:title></dc:title>
          </cc:Agent>
        </dc:creator>
        <dc:rights>
          <cc:Agent>
            <dc:title></dc:title>
          </cc:Agent>
        </dc:rights>
        <dc:date></dc:date>
        <dc:format>image/svg+xml</dc:format>
        <dc:type rdf:resource="http://purl.org/dc/dcmitype/StillImage"/>
        <cc:license rdf:resource="http://creativecommons.org/licenses/by/3.0/"/>
        <dc:language>en</dc:language>
      </cc:Work>
    </rdf:RDF>
  </metadata>
  <g>
    <circle cx="37.834" cy="28" fill="#FFFFFF" r="28.834"/>
    <g>
      <path d="M37.443-3.5c8.951,0,16.531,3.105,22.742,9.315C66.393,11.987,69.5,19.548,69.5,28.5c0,8.954-3.049,16.457-9.145,22.514    C53.918,57.338,46.279,60.5,37.443,60.5c-8.649,0-16.153-3.143-22.514-9.429C8.644,44.786,5.5,37.264,5.5,28.501    c0-8.723,3.144-16.285,9.429-22.685C21.138-0.395,28.643-3.5,37.443-3.5z M37.557,2.272c-7.276,0-13.428,2.572-18.457,7.715    c-5.22,5.296-7.829,11.467-7.829,18.513c0,7.125,2.59,13.257,7.77,18.4c5.181,5.182,11.352,7.771,18.514,7.771    c7.123,0,13.334-2.609,18.629-7.828c5.029-4.876,7.543-10.99,7.543-18.343c0-7.313-2.553-13.485-7.656-18.513    C51.004,4.842,44.832,2.272,37.557,2.272z M58.414,29.072l0.629,0.286v9.028l-0.572,0.284l-7.771,3.315L50.357,42.1l-0.4-0.114    l-16.743-6.914l-0.572-0.229l-8.285,3.429l-8.171-3.544V26.5l7.657-3.201l-0.057-0.057v-9.029l8.686-3.828l19.6,8.114v7.943    L58.414,29.072z M49.328,39.584v-5.655h-0.057v-0.229l-14.686-6v5.83l14.686,6.058v-0.058L49.328,39.584z M50.299,32.157    l5.145-2.114l-4.744-2l-5.029,2.114L50.299,32.157z M57.043,37.072V31.53l-5.715,2.4v5.6L57.043,37.072z"/>
    </g>
  </g>
</svg>
